!!!OTL: 72. Der Sieg bei Weißenburg (4. Aug. 1870).
!!!COM: Volksweise
!!!ODT: 1870
!!!ARE: Europa, Mitteleuropa, Deutschland
!!!SCT: B0072
!!!TXL: @@DE
!!!YEM: Copyright 1995, estate of Helmut Schaffrath.
**kern	**text
*ICvox	*
*Ivox	*
*M4/4	*
*met(c)	*
*clefG2	*
*k[]	*
*C:	*
!LO:TX:a:t=Freudig.	!
{4g	Hur-
=1	=1
4.cc	-rah!
8c	der
8c	er-
8c	-ſie
8e	Sie-
8c	-ges-
=2	=2
2g	-tag!
4r}	.
!LO:TX:a:t=Volksweiſe: "Sohn, da haſt du meinen Speer".	!
{8bL	der
8ccJ	.
=3	=3
4.dd	er-
8cc	-ſte
8b/	ſchar-
8a	-fe
8g	deut-
8f	-ſche
=4	=4
2e	Schlag!
8r}	.
{8g	Der
8a	traf,
8b	der
=5	=5
4.cc	ſaß
8g	und
4.dd	der
8g	drang
=6	=6
2ee	durch
8r}	.
{8dd	das
8cc	war
8b	der
=7	=7
4a	Schlag
4dd	von
4cc	Weißen-
4b	.
=8	=8
2cc	-burg.
8r}	.
{8g	Der
8a	traf,
8b	der
=9	=9
4.cc	ſaß
8g	und
4.dd	der
8g	drang
=10	=10
2ee	durch
8r}	.
{8dd	das
8cc	war
8b	der
=11	=11
4a	Schlag
4dd	von
4cc	Weißen-
4b	.
=12	=12
2cc	-burg.
4r}	.
==	==
!!!AGN: Kriegs -, Sieges -, Soldaten - Lied
!!!GTL: Kriegs- und Siegeslieder
!!!ONB: ESAC (Essen Associative Code) Database: BOEHME
!!!AMT: simple quadruple
!!!AIN: vox
!!!EED: Helmut Schaffrath
!!!EEV: 1.0
!!Volksweiſe: "Sohn, da haſt du meinen Speer".
!!Text: Matthias Evers
!!!URL-scan: https://archive.org/details/BoehmeVtLieder1895/page/n85/mode/2up
!!!ENC: Anna Maria Matuszewska
!!!EEV: 2024/14/06
*-	*-
